X:575
T:Polska efter Olof Nordblad
T:(SvL Hälsingland 575)
R:Polska
B:Svenska Låtar Hälsingland
O:Norrala, Hälsingland
N:Jfr SvL Häls. 401.
N:En version av polskan finns i Sexdregasamlingen.
S:Olof Nordblad
M:3/4
L:1/8
K:F
fe/f/ gf/e/ fc|c/B/A/G/ FA/d/ c2|fe/f/ gf/e/ bg|a/g/f/e/ f2 f2:|
|:c2 c/B/A/G/ FE|D2 d/c/B/c/ d2|d2 d/c/B/A/ GF|Cc e/d/c/d/ ec|fe/f/ gf/e/ bg|a/g/f/e/ f2f2:|

